X:203
T:La Petite Souris
C:Robin Beech
Z:robin.beech@mcgill.ca
R:reel
M:4/4
L:1/8
K:F
|: FGAB cdcf | Bagf fedc | Bdgf fefg | agfe dccc |
FGAB cdef | gabg fecc | Bdgf fefg | aggf fedc ::
ABcd caag | gffg fedc | Bdgf fedc | dfba abag |
ABcd caag | gffg fedc |  dfba abag |1 bagf edcB :|2 bgec BAAG |]
